(MULTI_AXIS_TEST)
(T377  D=2. CR=0. TAPER=118DEG - DRILL)
G90 G94 G91.1 G40 G49 G17
G21
G28 G91 Z0.
G90

(DRILL1)
M5
T377 M6
S5000 M3
G54
G0 A0.
G0 X-4.92 Y0.
G43 Z32.5 H377
Z22.5
G98 G81 X-4.92 Y0. Z12.964 R22.5 F100.
G80
Z32.5
G28 G91 Z0.
G90

(DRILL1 2)
G0 A-90.
G0 X-4.92 Y0.
G43 Z32.5 H377
Z22.5
G81 X-4.92 Y0. Z12.964 R22.5 F100.
G80
Z32.5
G28 G91 Z0.
G90

(DRILL1 4)
G0 A90.
G0 X-4.92 Y0.
G43 Z32.5 H377
Z22.5
G81 X-4.92 Y0. Z12.964 R22.5 F100.
G80
Z32.5
G28 G91 Z0.
G90

(DRILL1 3)
G0 A180.
G0 X-4.92 Y0.
G43 Z32.5 H377
Z22.5
G81 X-4.92 Y0. Z12.964 R22.5 F100.
G80
Z32.5

M5
M9
G28 G91 Z0.
G90
G0 A0.
G28 G91 X0. Y0.
G90
M30
