(TOOLCHANGE TEST)
(T10  D=0.125 CR=0. - ZMIN=0 - FLAT END MILL)
(T11  D=0.125 CR=0. - ZMIN=0 - FLAT END MILL)
(T12  D=0.125 CR=0. - ZMIN=0 - FLAT END MILL)
G90 G94 G91.1 G40 G49 G17
G21
G28 G91 Z0.
G90

(TOOLCHANGE TEST 1)
M5
T10 M6
S15000 M3
G54
G0 X0 Y0
G43 Z15.5 H10
Z5.5
G0 Z15.5
G17

(TOOLCHANGE TEST 2)
M5
T11 M6
S15000 M3
G54
G0 X0 Y0
G43 Z15.5 H11
Z5.5
G0 Z15.5
G17

(TOOLCHANGE TEST 3)
M5
T12 M6
S15000 M3
G54
G0 X0 Y0
G43 Z15.5 H12
Z5.5
G0 Z15.5
G17

M5
G28 G91 Z0.
G90
G28 G91 X0. Y0.
G90
M30
