(MULTI_SIDE_HOLE_TEST)
(T334  D=1.199 CR=0. TAPER=118DEG - DRILL)
G90 G94 G91.1 G40 G49 G17
G21
G28 G91 Z0.
G90

(DRILL9 16)
M5
T334 M6
S10000 M3
G54
G0 A0.
M8
G0 X0. Y0.088
G43 Z56.588 H334
Z6.587
Z3.587
G1 Z1.487 F80.
G0 Z1.587
G1 Z1.387 F80.
G0 Z1.487
G1 Z1.287 F80.
G0 Z1.387
G1 Z1.187 F80.
G0 Z1.287
G1 Z1.087 F80.
G0 Z1.187
G1 Z0.987 F80.
G0 Z1.087
G1 Z0.887 F80.
G0 Z0.987
G1 Z0.787 F80.
G0 Z0.887
G1 Z0.687 F80.
G0 Z0.787
G1 Z0.587 F80.
G0 Z0.687
G1 Z0.487 F80.
G0 Z0.587
G1 Z0.387 F80.
G0 Z0.487
G1 Z0.287 F80.
G0 Z0.387
G1 Z0.187 F80.
G0 Z0.287
G1 Z0.087 F80.
G0 Z0.187
G1 Z-0.013 F80.
G0 Z0.087
G1 Z-0.113 F80.
G0 Z-0.013
G1 Z-0.213 F80.
G0 Z-0.113
G1 Z-0.313 F80.
G0 Z-0.213
G1 Z-0.413 F80.
G0 Z-0.313
G1 Z-0.513 F80.
G0 Z6.587
Z1.487
G1 Z-0.613 F80.
G0 Z-0.513
G1 Z-0.713 F80.
G0 Z-0.613
G1 Z-0.813 F80.
G0 Z-0.713
G1 Z-0.913 F80.
G0 Z-0.813
G1 Z-1.013 F80.
G0 Z-0.913
G1 Z-1.113 F80.
G0 Z-1.013
G1 Z-1.125 F80.
G0 Z6.587
Z56.588
G28 G91 Z0.
G90

(DRILL9 17)
G0 A180.
G0 X0. Y-0.088
G43 Z56.588 H334
Z6.587
Z3.587
G1 Z1.487 F80.
G0 Z1.587
G1 Z1.387 F80.
G0 Z1.487
G1 Z1.287 F80.
G0 Z1.387
G1 Z1.187 F80.
G0 Z1.287
G1 Z1.087 F80.
G0 Z1.187
G1 Z0.987 F80.
G0 Z1.087
G1 Z0.887 F80.
G0 Z0.987
G1 Z0.787 F80.
G0 Z0.887
G1 Z0.687 F80.
G0 Z0.787
G1 Z0.587 F80.
G0 Z0.687
G1 Z0.487 F80.
G0 Z0.587
G1 Z0.387 F80.
G0 Z0.487
G1 Z0.287 F80.
G0 Z0.387
G1 Z0.187 F80.
G0 Z0.287
G1 Z0.087 F80.
G0 Z0.187
G1 Z-0.013 F80.
G0 Z0.087
G1 Z-0.113 F80.
G0 Z-0.013
G1 Z-0.213 F80.
G0 Z-0.113
G1 Z-0.313 F80.
G0 Z-0.213
G1 Z-0.413 F80.
G0 Z-0.313
G1 Z-0.513 F80.
G0 Z6.587
Z1.487
G1 Z-0.613 F80.
G0 Z-0.513
G1 Z-0.713 F80.
G0 Z-0.613
G1 Z-0.813 F80.
G0 Z-0.713
G1 Z-0.913 F80.
G0 Z-0.813
G1 Z-1.013 F80.
G0 Z-0.913
G1 Z-1.113 F80.
G0 Z-1.013
G1 Z-1.125 F80.
G0 Z6.587
Z56.588

M5
M9
G28 G91 Z0.
G90
G0 A0.
G28 G91 X0. Y0.
G90
M30
