(ELARA_TEST)
(T102  D=3.175 CR=0. - ZMIN=-6.35 - FLAT END MILL)
G90 G94 G91.1 G40 G49 G17
G21
G28 G91 Z0.
G90

(2D POCKET1)
M5
S15000 M3
G54
M8
G0 X-2.354 Y1.192
G43 Z15. H102
Z5.
G1 Z2.817 F100.
Z2.802
X-2.355 Y1.191 Z2.786
X-2.357 Y1.19 Z2.77
X-2.359 Y1.189 Z2.755
X-2.362 Y1.186 Z2.739
X-2.365 Y1.184 Z2.724
X-2.369 Y1.181 Z2.709
X-2.373 Y1.177 Z2.695
X-2.378 Y1.173 Z2.68
X-2.384 Y1.169 Z2.666
X-2.39 Y1.164 Z2.653
X-2.396 Y1.158 Z2.639
X-2.403 Y1.152 Z2.627
X-2.411 Y1.146 Z2.614
X-2.419 Y1.139 Z2.602
X-2.427 Y1.132 Z2.591
X-2.436 Y1.125 Z2.58
X-2.444 Y1.116 Z2.57
X-2.454 Y1.108 Z2.561
X-2.463 Y1.099 Z2.552
X-2.473 Y1.09 Z2.543
X-2.483 Y1.08 Z2.536
X-2.493 Y1.071 Z2.529
X-2.503 Y1.06 Z2.523
X-2.513 Y1.05 Z2.517
X-2.524 Y1.039 Z2.512
X-2.534 Y1.028 Z2.508
X-2.545 Y1.017 Z2.505
X-2.555 Y1.005 Z2.503
X-2.565 Y0.993 Z2.501
X-2.576 Y0.982 Z2.5
G3 X-0.286 Y-0.982 Z2.335 I1.145 J-0.982
X-2.576 Y0.982 Z2.169 I-1.145 J0.982
X-0.286 Y-0.982 Z2.004 I1.145 J-0.982
X-2.576 Y0.982 Z1.838 I-1.145 J0.982
X-0.286 Y-0.982 Z1.673 I1.145 J-0.982
X-2.576 Y0.982 Z1.507 I-1.145 J0.982
X-0.286 Y-0.982 Z1.342 I1.145 J-0.982
X-2.576 Y0.982 Z1.176 I-1.145 J0.982
X-0.286 Y-0.982 Z1.011 I1.145 J-0.982
X-2.576 Y0.982 Z0.845 I-1.145 J0.982
X-0.286 Y-0.982 Z0.68 I1.145 J-0.982
X-2.576 Y0.982 Z0.515 I-1.145 J0.982
X-0.286 Y-0.982 Z0.349 I1.145 J-0.982
X-2.576 Y0.982 Z0.184 I-1.145 J0.982
X-0.286 Y-0.982 Z0.018 I1.145 J-0.982
X-2.576 Y0.982 Z-0.147 I-1.145 J0.982
X-0.286 Y-0.982 Z-0.313 I1.145 J-0.982
X0.078 Y0. Z-0.35 I-1.145 J0.982
G1 X0.07 Y0.034 F200.
X0.048 Y0.061
X0.017 Y0.076
X-0.017
X-0.048 Y0.061
X-0.07 Y0.034
X-0.078 Y0.
G3 X1.982 I1.03 J0.
X-1.982 I-1.982 J0.
X3.888 I2.935 J0.
X-3.888 I-3.888 J0.
X5.793 I4.84 J0.
X-5.793 I-5.793 J0.
X7.698 I6.745 J0.
X-7.698 I-7.698 J0.
X9.602 I8.65 J0.
X-9.602 I-9.602 J0.
X11.507 I10.555 J0.
X-11.507 I-11.507 J0.
X13.413 I12.46 J0.
X-13.413 I-13.413 J0.
X13.413 I13.413 J0.
G1 X13.412 Y0.016
X13.411 Y0.031 Z-0.348
X13.409 Y0.046 Z-0.347
X13.406 Y0.062 Z-0.344
X13.403 Y0.076 Z-0.34
X13.399 Y0.091 Z-0.336
X13.395 Y0.105 Z-0.331
X13.39 Y0.119 Z-0.326
X13.384 Y0.132 Z-0.32
X13.378 Y0.144 Z-0.313
X13.371 Y0.156 Z-0.305
X13.365 Y0.167 Z-0.296
X13.358 Y0.178 Z-0.288
X13.351 Y0.188 Z-0.278
X13.344 Y0.198 Z-0.268
X13.336 Y0.206 Z-0.257
X13.329 Y0.214 Z-0.246
X13.322 Y0.222 Z-0.234
X13.315 Y0.228 Z-0.222
X13.309 Y0.235 Z-0.209
X13.303 Y0.24 Z-0.196
X13.297 Y0.245 Z-0.182
X13.291 Y0.249 Z-0.168
X13.286 Y0.253 Z-0.154
X13.282 Y0.257 Z-0.139
X13.278 Y0.26 Z-0.125
X13.274 Y0.262 Z-0.11
X13.272 Y0.264 Z-0.094
X13.269 Y0.265 Z-0.079
X13.268 Y0.266 Z-0.064
X13.267 Y0.267 Z-0.048
Z-0.033
G0 Z15.

(2D POCKET1 2)
G0 X-1.442 Y-1.566
Z15.
Z5.
G1 Z2.817 F100.
Z2.802
Y-1.568 Z2.786
X-1.441 Y-1.569 Z2.77
Y-1.572 Z2.755
X-1.44 Y-1.575 Z2.739
X-1.438 Y-1.579 Z2.724
X-1.437 Y-1.584 Z2.709
X-1.435 Y-1.589 Z2.695
X-1.433 Y-1.596 Z2.68
X-1.431 Y-1.602 Z2.666
X-1.428 Y-1.61 Z2.653
X-1.426 Y-1.618 Z2.639
X-1.423 Y-1.626 Z2.627
X-1.419 Y-1.636 Z2.614
X-1.416 Y-1.645 Z2.602
X-1.412 Y-1.656 Z2.591
X-1.408 Y-1.666 Z2.58
X-1.404 Y-1.678 Z2.57
X-1.399 Y-1.689 Z2.561
X-1.394 Y-1.701 Z2.552
X-1.389 Y-1.713 Z2.543
X-1.383 Y-1.726 Z2.536
X-1.378 Y-1.739 Z2.529
X-1.372 Y-1.752 Z2.523
X-1.366 Y-1.766 Z2.517
X-1.359 Y-1.779 Z2.512
X-1.353 Y-1.793 Z2.508
X-1.346 Y-1.807 Z2.505
X-1.339 Y-1.82 Z2.503
X-1.331 Y-1.834 Z2.501
X-1.324 Y-1.848 Z2.5
G3 X1.324 Y-0.403 Z2.335 I1.324 J0.722
X-1.324 Y-1.848 Z2.169 I-1.324 J-0.722
X1.324 Y-0.403 Z2.004 I1.324 J0.722
X-1.324 Y-1.848 Z1.838 I-1.324 J-0.722
X1.324 Y-0.403 Z1.673 I1.324 J0.722
X-1.324 Y-1.848 Z1.507 I-1.324 J-0.722
X1.324 Y-0.403 Z1.342 I1.324 J0.722
X-1.324 Y-1.848 Z1.176 I-1.324 J-0.722
X1.324 Y-0.403 Z1.011 I1.324 J0.722
X-1.324 Y-1.848 Z0.845 I-1.324 J-0.722
X1.324 Y-0.403 Z0.68 I1.324 J0.722
X-1.324 Y-1.848 Z0.515 I-1.324 J-0.722
X1.324 Y-0.403 Z0.349 I1.324 J0.722
X-1.324 Y-1.848 Z0.184 I-1.324 J-0.722
X1.324 Y-0.403 Z0.018 I1.324 J0.722
X-1.324 Y-1.848 Z-0.147 I-1.324 J-0.722
X1.324 Y-0.403 Z-0.313 I1.324 J0.722
X-1.324 Y-1.848 Z-0.478 I-1.324 J-0.722
X1.324 Y-0.403 Z-0.644 I1.324 J0.722
X0. Y0.382 Z-0.7 I-1.324 J-0.722
G1 X-0.063 F200.
G3 X-0.382 Y0.063 I0. J-0.319
G1 Y-0.063
G3 X-0.063 Y-0.382 I0.319 J0.
G1 X0.063
G3 X0.382 Y-0.063 I0. J0.319
G1 Y0.063
G3 X0.063 Y0.382 I-0.319 J0.
G1 X0.
G2 X-1.043 Y0.958 I0. J1.232
G3 X-2.188 Y0.628 I-0.525 J-0.33
G1 Y-1.868
G3 X-1.868 Y-2.188 I0.319 J0.
G1 X1.868
G3 X2.188 Y-1.868 I0. J0.319
G1 Y1.868
G3 X1.868 Y2.188 I-0.319 J0.
G1 X-1.868
G3 X-2.188 Y1.868 I0. J-0.319
G1 Y0.628
G2 X-3.09 Y-0.726 I-1.467 J0.
G3 X-3.993 Y-2.08 I0.564 J-1.354
G1 Y-3.673
G3 X-3.673 Y-3.993 I0.319 J0.
G1 X3.673
G3 X3.993 Y-3.673 I0. J0.319
G1 Y3.673
G3 X3.673 Y3.993 I-0.319 J0.
G1 X-3.673
G3 X-3.993 Y3.673 I0. J-0.319
G1 Y-2.08
G2 X-4.895 Y-3.433 I-1.467 J0.
G3 X-5.798 Y-4.787 I0.564 J-1.354
G1 Y-5.478
G3 X-5.478 Y-5.798 I0.319 J0.
G1 X5.478
G3 X5.798 Y-5.478 I0. J0.319
G1 Y5.478
G3 X5.478 Y5.798 I-0.319 J0.
G1 X-5.478
G3 X-5.798 Y5.478 I0. J-0.319
G1 Y-4.787
G2 X-6.712 Y-5.885 I-1.117 J0.
G3 X-7.057 Y-7.272 I0.142 J-0.772
X-6.238 Y-7.557 I0.819 J1.035
G1 X6.238
G3 X7.557 Y-6.238 I0. J1.32
G1 Y6.238
G3 X6.238 Y7.557 I-1.32 J0.
G1 X-6.238
G3 X-7.557 Y6.238 I0. J-1.32
G1 Y-6.238
G3 X-7.057 Y-7.272 I1.32 J0.
G2 X-6.5 Y-8.467 I-0.913 J-1.153
G3 X-5.581 Y-9.413 I0.919 J-0.026
G1 X6.238
G3 X9.413 Y-6.238 I0. J3.175
G1 Y6.238
G3 X6.238 Y9.413 I-3.175 J0.
G1 X-6.238
G3 X-9.413 Y6.238 I0. J-3.175
G1 Y-6.238
G3 X-6.238 Y-9.413 I3.175 J0.
G1 X-5.581
X-5.565 Y-9.412
X-5.55 Y-9.411 Z-0.698
X-5.535 Y-9.409 Z-0.697
X-5.519 Y-9.406 Z-0.694
X-5.505 Y-9.403 Z-0.69
X-5.49 Y-9.399 Z-0.686
X-5.476 Y-9.395 Z-0.681
X-5.462 Y-9.39 Z-0.676
X-5.449 Y-9.384 Z-0.67
X-5.437 Y-9.378 Z-0.663
X-5.425 Y-9.371 Z-0.655
X-5.414 Y-9.365 Z-0.646
X-5.403 Y-9.358 Z-0.638
X-5.393 Y-9.351 Z-0.628
X-5.383 Y-9.344 Z-0.618
X-5.375 Y-9.336 Z-0.607
X-5.367 Y-9.329 Z-0.596
X-5.359 Y-9.322 Z-0.584
X-5.353 Y-9.315 Z-0.572
X-5.346 Y-9.309 Z-0.559
X-5.341 Y-9.303 Z-0.546
X-5.336 Y-9.297 Z-0.532
X-5.332 Y-9.291 Z-0.518
X-5.328 Y-9.286 Z-0.504
X-5.324 Y-9.282 Z-0.489
X-5.321 Y-9.278 Z-0.475
X-5.319 Y-9.274 Z-0.46
X-5.317 Y-9.272 Z-0.444
X-5.316 Y-9.269 Z-0.429
X-5.315 Y-9.268 Z-0.414
X-5.314 Y-9.267 Z-0.398
Z-0.383
G0 Z15.

(BORE1)
G0 X0.53 Y-0.317
Z15.
Z1.3
G1 Z-0.382 F200.
G18 G2 X0.848 Z-0.7 I0.317 K0.
G1 X1.006
G17 G3 X1.324 Y0. I0. J0.317
X-1.324 Z-0.802 I-1.324 J0.
X1.324 Z-0.903 I1.324 J0.
X-1.324 Z-1.005 I-1.324 J0.
X1.324 Z-1.107 I1.324 J0.
X-1.324 Z-1.208 I-1.324 J0.
X1.324 Z-1.31 I1.324 J0.
X-1.324 Z-1.412 I-1.324 J0.
X1.324 Z-1.513 I1.324 J0.
X-1.324 Z-1.615 I-1.324 J0.
X1.324 Z-1.717 I1.324 J0.
X-1.324 Z-1.818 I-1.324 J0.
X1.324 Z-1.92 I1.324 J0.
X-1.324 Z-2.022 I-1.324 J0.
X1.324 Z-2.123 I1.324 J0.
X-1.324 Z-2.225 I-1.324 J0.
X1.324 Z-2.327 I1.324 J0.
X-1.324 Z-2.428 I-1.324 J0.
X1.324 Z-2.53 I1.324 J0.
X-1.324 Z-2.632 I-1.324 J0.
X1.324 Z-2.733 I1.324 J0.
X-1.324 Z-2.835 I-1.324 J0.
X1.324 Z-2.937 I1.324 J0.
X-1.324 Z-3.038 I-1.324 J0.
X1.324 Z-3.14 I1.324 J0.
X-1.324 Z-3.242 I-1.324 J0.
X1.324 Z-3.343 I1.324 J0.
X-1.324 Z-3.445 I-1.324 J0.
X1.324 Z-3.547 I1.324 J0.
X-1.324 Z-3.648 I-1.324 J0.
X1.324 Z-3.75 I1.324 J0.
X-1.324 Z-3.852 I-1.324 J0.
X1.324 Z-3.953 I1.324 J0.
X-1.324 Z-4.055 I-1.324 J0.
X1.324 Z-4.157 I1.324 J0.
X-1.324 Z-4.258 I-1.324 J0.
X1.324 Z-4.36 I1.324 J0.
X-1.324 Z-4.462 I-1.324 J0.
X1.324 Z-4.563 I1.324 J0.
X-1.324 Z-4.665 I-1.324 J0.
X1.324 Z-4.767 I1.324 J0.
X-1.324 Z-4.868 I-1.324 J0.
X1.324 Z-4.97 I1.324 J0.
X-1.324 Z-5.072 I-1.324 J0.
X1.324 Z-5.173 I1.324 J0.
X-1.324 Z-5.275 I-1.324 J0.
X1.324 Z-5.377 I1.324 J0.
X-1.324 Z-5.478 I-1.324 J0.
X1.324 Z-5.58 I1.324 J0.
X-1.324 Z-5.682 I-1.324 J0.
X1.324 Z-5.783 I1.324 J0.
X-1.324 Z-5.885 I-1.324 J0.
X1.324 Z-5.987 I1.324 J0.
X-1.324 Z-6.088 I-1.324 J0.
X1.324 Z-6.19 I1.324 J0.
X-1.324 Z-6.292 I-1.324 J0.
X0.3 Y-1.289 Z-6.35 I1.324 J0.
X-0.3 Y1.289 I-0.3 J1.289
X0.3 Y-1.289 I0.3 J-1.289
X0.537 Y-0.908 I-0.072 J0.309
G1 X0.501 Y-0.754
X0.485 Y-0.685 Z-6.342
X0.47 Y-0.619 Z-6.319
X0.456 Y-0.561 Z-6.281
X0.445 Y-0.512 Z-6.23
X0.437 Y-0.475 Z-6.17
X0.431 Y-0.452 Z-6.103
X0.429 Y-0.444 Z-6.032
G0 Z15.

M9
G28 G91 Z0.
G90
G28 G91 X0. Y0.
G90
M30
